src/assets/Images/036-calculator.svg

<svg enable-background="new 0 0 480 480" viewBox="0 0 480 480" xmlns="http://www.w3.org/2000/svg"><path d="m120 32h152v16h-152z"/><path d="m132.014 51.636h16v40h-16z" transform="matrix(.0166 -.9999 .9999 .0166 66.0667 210.4427)"/><path d="m176 64h96v16h-96z"/><path d="m383.6 85.44c.03-.239.03-.481 0-.72-.382-.873-.894-1.682-1.52-2.4l-80-80c-.718-.626-1.527-1.138-2.4-1.52h-.72c-.782-.389-1.618-.659-2.48-.8h-208.48c-4.418 0-8 3.582-8 8v88h-72c-4.418 0-8 3.582-8 8v368c0 4.418 3.582 8 8 8h256c4.418 0 8-3.582 8-8v-56h104c4.418 0 8-3.582 8-8v-320s0 0 0-.48c-.048-.707-.183-1.405-.4-2.08zm-79.6-58.16 52.72 52.72h-52.72zm-48 436.72h-240v-352h240zm112-64h-96v-24h64c4.418 0 8-3.582 8-8v-240c0-4.418-3.582-8-8-8h-64v-16c0-4.418-3.582-8-8-8h-168v-80h192v72c0 4.418 3.582 8 8 8h72zm-40-216v32h-56v-32zm-56-16v-32h56v32zm56 64v32h-56v-32zm0 48v32h-56v-32zm0 48v32h-56v-32z"/><path d="m232 136h-192c-4.418 0-8 3.582-8 8v64c0 4.418 3.582 8 8 8h192c4.418 0 8-3.582 8-8v-64c0-4.418-3.582-8-8-8zm-8 64h-176v-48h176z"/><path d="m232 240h-192c-4.418 0-8 3.582-8 8v192c0 4.418 3.582 8 8 8h192c4.418 0 8-3.582 8-8v-192c0-4.418-3.582-8-8-8zm-152 192h-32v-32h32zm0-48h-32v-32h32zm0-48h-32v-32h32zm0-48h-32v-32h32zm48 144h-32v-32h32zm0-48h-32v-32h32zm0-48h-32v-32h32zm0-48h-32v-32h32zm48 144h-32v-32h32zm0-48h-32v-32h32zm0-48h-32v-32h32zm0-48h-32v-32h32zm48 144h-32v-80h32zm0-96h-32v-32h32zm0-48h-32v-32h32z"/><path d="m96 168h16v16h-16z"/><path d="m128 168h16v16h-16z"/><path d="m160 168h16v16h-16z"/><path d="m192 168h16v16h-16z"/><path d="m472 88h-24v-24c0-4.418-3.582-8-8-8h-32c-4.418 0-8 3.582-8 8v280c-.012 2.126.823 4.17 2.32 5.68l16 16c3.111 3.137 8.177 3.158 11.314.046.016-.015.031-.031.046-.046l16-16c1.497-1.51 2.332-3.554 2.32-5.68v-240h16v104h16v-112c0-4.418-3.582-8-8-8zm-40 252.72-8 8-8-8v-140.72h16zm0-156.72h-16v-80h16zm0-96h-16v-16h16z"/></svg>

<?xml version="1.0" encoding="iso-8859-1"?>
<!-- Generator: Adobe Illustrator 19.0.0, SVG Export Plug-In . SVG Version: 6.00 Build 0)  -->
<svg version="1.1" id="Capa_1" xmlns="http://www.w3.org/2000/svg" xmlns:xlink="http://www.w3.org/1999/xlink" x="0px" y="0px"
	 viewBox="0 0 480 480" style="enable-background:new 0 0 480 480;" xml:space="preserve">
<g>
	<g>
		<rect x="120" y="32" width="152" height="16"/>
	</g>
</g>
<g>
	<g>
		<rect x="132.014" y="51.636" transform="matrix(0.0166 -0.9999 0.9999 0.0166 66.0667 210.4427)" width="16" height="40"/>
	</g>
</g>
<g>
	<g>
		<rect x="176" y="64" width="96" height="16"/>
	</g>
</g>
<g>
	<g>
		<path d="M383.6,85.44c0.03-0.239,0.03-0.481,0-0.72c-0.382-0.873-0.894-1.682-1.52-2.4l-80-80c-0.718-0.626-1.527-1.138-2.4-1.52
			h-0.72c-0.782-0.389-1.618-0.659-2.48-0.8H88c-4.418,0-8,3.582-8,8v88H8c-4.418,0-8,3.582-8,8v368c0,4.418,3.582,8,8,8h256
			c4.418,0,8-3.582,8-8v-56h104c4.418,0,8-3.582,8-8V88c0,0,0,0,0-0.48C383.952,86.813,383.817,86.115,383.6,85.44z M304,27.28
			L356.72,80H304V27.28z M256,464H16V112h240V464z M368,400h-96v-24h64c4.418,0,8-3.582,8-8V128c0-4.418-3.582-8-8-8h-64v-16
			c0-4.418-3.582-8-8-8H96V16h192v72c0,4.418,3.582,8,8,8h72V400z M328,184v32h-56v-32H328z M272,168v-32h56v32H272z M328,232v32
			h-56v-32H328z M328,280v32h-56v-32H328z M328,328v32h-56v-32H328z"/>
	</g>
</g>
<g>
	<g>
		<path d="M232,136H40c-4.418,0-8,3.582-8,8v64c0,4.418,3.582,8,8,8h192c4.418,0,8-3.582,8-8v-64C240,139.582,236.418,136,232,136z
			 M224,200H48v-48h176V200z"/>
	</g>
</g>
<g>
	<g>
		<path d="M232,240H40c-4.418,0-8,3.582-8,8v192c0,4.418,3.582,8,8,8h192c4.418,0,8-3.582,8-8V248C240,243.582,236.418,240,232,240z
			 M80,432H48v-32h32V432z M80,384H48v-32h32V384z M80,336H48v-32h32V336z M80,288H48v-32h32V288z M128,432H96v-32h32V432z M128,384
			H96v-32h32V384z M128,336H96v-32h32V336z M128,288H96v-32h32V288z M176,432h-32v-32h32V432z M176,384h-32v-32h32V384z M176,336
			h-32v-32h32V336z M176,288h-32v-32h32V288z M224,432h-32v-80h32V432z M224,336h-32v-32h32V336z M224,288h-32v-32h32V288z"/>
	</g>
</g>
<g>
	<g>
		<rect x="96" y="168" width="16" height="16"/>
	</g>
</g>
<g>
	<g>
		<rect x="128" y="168" width="16" height="16"/>
	</g>
</g>
<g>
	<g>
		<rect x="160" y="168" width="16" height="16"/>
	</g>
</g>
<g>
	<g>
		<rect x="192" y="168" width="16" height="16"/>
	</g>
</g>
<g>
	<g>
		<path d="M472,88h-24V64c0-4.418-3.582-8-8-8h-32c-4.418,0-8,3.582-8,8v280c-0.012,2.126,0.823,4.17,2.32,5.68l16,16
			c3.111,3.137,8.177,3.158,11.314,0.046c0.016-0.015,0.031-0.031,0.046-0.046l16-16c1.497-1.51,2.332-3.554,2.32-5.68V104h16v104
			h16V96C480,91.582,476.418,88,472,88z M432,340.72l-8,8l-8-8V200h16V340.72z M432,184h-16v-80h16V184z M432,88h-16V72h16V88z"/>
	</g>
</g>
<g>
</g>
<g>
</g>
<g>
</g>
<g>
</g>
<g>
</g>
<g>
</g>
<g>
</g>
<g>
</g>
<g>
</g>
<g>
</g>
<g>
</g>
<g>
</g>
<g>
</g>
<g>
</g>
<g>
</g>
</svg>
